!!!OTL: Fansaodang
!!!ARE: Asia, China,ÿHebei Suning
!! IV, 38
!!!SCT: C1920
!!!YEM: Copyright 1995, estate of Helmut Schaffrath.
**kern
*ICvox
*Ivox
*M2/4
*k[f#c#g#]
*A:
{8.b
16b
4b
=1
4b
4r
=2
4ee
4e
=3
4e
4r}
=4
{8b
4b
8cc#
=5
8ee
8cc#
4b
=6
4ee
4e
=7
4e
4r}
=8
{8cc#
8cc#
4b
=9
8cc#
8cc#
8b
8b
=10
4ee
4a
=11
4b
4r}
=12
{8b
16b
16b
8b
8cc#
=13
4b
4e
=14
8a
4a
8f#
=15
4e
4r}
==
!!!AGN: Xiaodiao
!!!AMT: simple duple
!!!AIN: vox
!!!EED: Helmut Schaffrath
!!!EEV: 1.0
*-
